brandFactory_export/1.Light/Seguridad_1Light.svg

<?xml version="1.0" encoding="UTF-8"?>
<svg width="24px" height="24px" viewBox="0 0 24 24" version="1.1" xmlns="http://www.w3.org/2000/svg" xmlns:xlink="http://www.w3.org/1999/xlink">
    <title>1.Light/Seguridad_1Light</title>
    <g id="Symbols" stroke="none" stroke-width="1" fill="none" fill-rule="evenodd">
        <g id="1.Light/Seguridad_1Light" fill="#5CB615" fill-rule="nonzero">
            <path d="M11.6890756,0.0100840336 C14.794958,0.0100840336 17.3226891,2.34285714 17.3226891,5.20672269 L17.3234976,8.62541785 C18.0246376,8.76421453 18.6014763,9.04122716 19.0470588,9.45546218 C19.7462185,10.1008403 20.1058824,11.0621849 20.1226891,12.312605 L20.1226891,19.8218487 C20.1058824,21.0722689 19.7462185,22.0336134 19.0470588,22.6789916 C18.3781513,23.2941176 17.4134454,23.610084 16.1764706,23.610084 L6.93613445,23.610084 C5.69915966,23.610084 4.73445378,23.2941176 4.06890756,22.6756303 C3.37310924,22.0268908 3.02016807,21.0655462 3.02016807,19.8151261 L3.02352941,12.8537815 C3.02240896,12.7271709 3.021662,12.6255836 3.02116402,12.5464052 L3.02016807,12.3159664 C3.02016807,11.0655462 3.37310924,10.1042017 4.06890756,9.45546218 C4.51845801,9.03769813 5.10449929,8.75795851 5.81978017,8.62038688 L5.82016807,5.20672269 C5.82016807,2.3394958 8.34789916,0.0100840336 11.4537815,0.0100840336 L11.6890756,0.0100840336 Z M16.1764706,9.24369748 L6.93613445,9.24369748 C5.88739496,9.24369748 5.08739496,9.49243697 4.55630252,9.98655462 C4.01512605,10.4840336 3.7394958,11.2705882 3.7394958,12.312605 L3.74002101,12.3545693 C3.74065126,12.4011029 3.74170168,12.4860819 3.74233193,12.6174895 L3.74285714,12.8537815 L3.7394958,19.8151261 C3.7394958,20.8571429 4.01512605,21.6403361 4.55966387,22.1478992 C5.08739496,22.6386555 5.8907563,22.8907563 6.9394958,22.8907563 L16.1764706,22.8907563 C18.3210084,22.8907563 19.3764706,21.8857143 19.4033613,19.8151261 L19.4033613,12.3193277 C19.3764706,10.2487395 18.3210084,9.24369748 16.1764706,9.24369748 Z M11.5781513,15.0521008 C12.8420168,15.0521008 13.5680788,15.7781513 13.5680788,17.0420168 C13.5714286,18.3058824 12.8453782,19.0319328 11.5781513,19.0319328 C10.3142857,19.0319328 9.58823529,18.3058824 9.58823529,17.0420168 C9.58823529,15.7781513 10.3142857,15.0521008 11.5781513,15.0521008 Z M11.5781513,15.7714286 C10.7109244,15.7714286 10.307563,16.1747899 10.307563,17.0420168 C10.307563,17.9092437 10.7109244,18.312605 11.5781513,18.312605 C12.4453782,18.312605 12.8487395,17.9092437 12.8487395,17.0420168 C12.8487395,16.1747899 12.4453782,15.7714286 11.5781513,15.7714286 Z M11.6890756,0.685714286 L11.4537815,0.685714286 C8.7210084,0.685714286 6.49915966,2.71260504 6.49915966,5.20672269 L6.49768921,8.53510523 C6.64082336,8.52571549 6.78810649,8.5210084 6.9394958,8.5210084 L16.1764706,8.5210084 C16.3372808,8.5210084 16.4934895,8.52629166 16.645045,8.53685079 L16.6436975,5.20672269 C16.6436975,2.71596639 14.4218487,0.685714286 11.6890756,0.685714286 Z" id="Seguridad_1Light"></path>
        </g>
    </g>
</svg>

<svg width="24" height="24" viewBox="0 0 24 24" xmlns="http://www.w3.org/2000/svg"><path d="M11.69.01c3.105 0 5.633 2.333 5.633 5.197v3.418c.702.14 1.278.416 1.724.83.7.646 1.059 1.607 1.076 2.858v7.509c-.017 1.25-.377 2.212-1.076 2.857-.669.615-1.634.931-2.87.931h-9.24c-1.238 0-2.203-.316-2.868-.934-.696-.65-1.049-1.61-1.049-2.86l.004-6.962-.003-.308v-.23c0-1.25.352-2.212 1.048-2.86.45-.418 1.035-.698 1.75-.836l.001-3.413C5.82 2.339 8.348.01 11.454.01h.235zm4.486 9.234h-9.24c-1.049 0-1.849.248-2.38.743-.54.497-.817 1.284-.817 2.326l.001.042.002.262v.237l-.003 6.961c0 1.042.276 1.825.82 2.333.528.49 1.332.743 2.38.743h9.237c2.145 0 3.2-1.005 3.227-3.076V12.32c-.027-2.07-1.082-3.075-3.227-3.075zm-4.598 5.808c1.264 0 1.99.726 1.99 1.99.003 1.264-.723 1.99-1.99 1.99-1.264 0-1.99-.726-1.99-1.99s.726-1.99 1.99-1.99zm0 .72c-.867 0-1.27.403-1.27 1.27s.403 1.27 1.27 1.27 1.27-.403 1.27-1.27-.403-1.27-1.27-1.27zM11.69.685h-.235c-2.733 0-4.955 2.027-4.955 4.52l-.001 3.33c.143-.01.29-.015.441-.015h9.237c.161 0 .317.005.469.016l-.001-3.33c0-2.491-2.222-4.521-4.955-4.521z" fill="#5CB615" fill-rule="nonzero"/></svg>
